X: 1
T: Lough Key
M: 9/8
L: 1/8
R: slip jig
K:Gmaj
|:~G3 BGd c2e|~G3 BdB cAF|~G3 DBB DGF|1 E2G AGF G2D:|2 E2G AGF GAB||
|:AGE EDB, DEG|dBA ABd edg|dBA AGE EDB,|DB,A, A,B,D E2B:|
